src/assets/logo.svg

<svg width="75" height="75" viewBox="0 0 75 75" fill="none" xmlns="http://www.w3.org/2000/svg">
<path d="M60.7904 8.14923L41.2428 22.3515L73.996 46.1483C74.6514 43.3764 75 40.4873 75 37.518C75 25.6339 69.4421 15.0246 60.7904 8.14923V8.14923Z" fill="#99154E"/>
<path d="M56.9801 5.48571C51.2991 2.01798 44.6288 0.0178833 37.5 0.0178833C29.8386 0.0178833 22.7077 2.32911 16.7644 6.28844L24.2345 29.2771L56.9801 5.48571Z" fill="#FFC93C"/>
<path d="M13.0578 9.10138C5.06763 15.9837 0 26.1697 0 37.5179C0 41.0049 0.480176 44.3816 1.37476 47.5871H25.5636L13.0578 9.10138Z" fill="#99154E"/>
<path d="M2.90283 51.9818C8.38149 65.0376 21.0427 74.3606 35.9153 74.9821L43.3885 51.9818H2.90283Z" fill="#99154E"/>
<path d="M40.5652 74.8919C55.3085 73.6935 67.6664 63.9306 72.6447 50.5982L53.0777 36.3819L40.5652 74.8919Z" fill="#99154E"/>
</svg>

<svg width="75" height="75" fill="none" xmlns="http://www.w3.org/2000/svg"><path d="M60.79 8.15 41.243 22.351l32.753 23.796A37.467 37.467 0 0 0 75 37.518c0-11.884-5.558-22.493-14.21-29.369Z" fill="#99154E"/><path d="M56.98 5.486A37.273 37.273 0 0 0 37.5.018a37.281 37.281 0 0 0-20.736 6.27l7.47 22.99L56.98 5.485Z" fill="#FFC93C"/><path d="M13.058 9.101C5.068 15.984 0 26.17 0 37.518c0 3.487.48 6.864 1.375 10.07h24.189L13.058 9.1ZM2.903 51.982c5.478 13.056 18.14 22.379 33.012 23l7.474-23H2.903ZM40.565 74.892c14.744-1.198 27.101-10.961 32.08-24.294L53.078 36.382l-12.513 38.51Z" fill="#99154E"/></svg>
